dt-assets/images/help.svg

<svg fill="#3F729B" xmlns="http://www.w3.org/2000/svg" xmlns:xlink="http://www.w3.org/1999/xlink" version="1.1" x="0px" y="0px" viewBox="0 0 100 100" enable-background="new 0 0 100 100" xml:space="preserve"><path d="M50,1.1C23,1.1,1.1,23,1.1,50S23,98.9,50,98.9C77,98.9,98.9,77,98.9,50S77,1.1,50,1.1z M55.3,77.7c0,1.7-1.4,3.1-3.1,3.1  h-7.9c-1.7,0-3.1-1.4-3.1-3.1v-5.1c0-1.7,1.4-3.1,3.1-3.1h7.9c1.7,0,3.1,1.4,3.1,3.1V77.7z M67.8,47.3c-2.1,2.9-4.7,5.2-7.9,6.9  c-1.8,1.2-3,2.4-3.6,3.8c-0.4,0.9-0.7,2.1-0.9,3.5c-0.1,1.1-1.1,1.9-2.2,1.9h-9.7c-1.3,0-2.3-1.1-2.2-2.3c0.2-2.7,0.9-4.8,2-6.4  c1.4-1.9,3.9-4.2,7.5-6.7c1.9-1.2,3.3-2.6,4.4-4.3c1.1-1.7,1.6-3.7,1.6-6c0-2.3-0.6-4.2-1.9-5.6c-1.3-1.4-3-2.1-5.3-2.1  c-1.9,0-3.4,0.6-4.7,1.7c-0.8,0.7-1.3,1.6-1.6,2.8c-0.4,1.4-1.7,2.3-3.2,2.3l-9-0.2c-1.1,0-2-1-1.9-2.1c0.3-4.8,2.2-8.4,5.5-11  c3.8-2.9,8.7-4.4,14.9-4.4c6.6,0,11.8,1.7,15.6,5c3.8,3.3,5.7,7.8,5.7,13.5C70.9,41.2,69.8,44.4,67.8,47.3z"></path></svg>

<?xml version="1.0" encoding="UTF-8" standalone="no"?>
<!DOCTYPE svg PUBLIC "-//W3C//DTD SVG 1.1//EN" "http://www.w3.org/Graphics/SVG/1.1/DTD/svg11.dtd">
<svg width="100%" height="100%" viewBox="0 0 100 100" version="1.1" xmlns="http://www.w3.org/2000/svg" xmlns:xlink="http://www.w3.org/1999/xlink" xml:space="preserve" xmlns:serif="http://www.serif.com/" style="fill-rule:evenodd;clip-rule:evenodd;stroke-linejoin:round;stroke-miterlimit:2;">
    <path d="M50,1.1C23,1.1 1.1,23 1.1,50C1.1,77 23,98.9 50,98.9C77,98.9 98.9,77 98.9,50C98.9,23 77,1.1 50,1.1ZM55.3,77.7C55.3,79.4 53.9,80.8 52.2,80.8L44.3,80.8C42.6,80.8 41.2,79.4 41.2,77.7L41.2,72.6C41.2,70.9 42.6,69.5 44.3,69.5L52.2,69.5C53.9,69.5 55.3,70.9 55.3,72.6L55.3,77.7ZM67.8,47.3C65.7,50.2 63.1,52.5 59.9,54.2C58.1,55.4 56.9,56.6 56.3,58C55.9,58.9 55.6,60.1 55.4,61.5C55.3,62.6 54.3,63.4 53.2,63.4L43.5,63.4C42.2,63.4 41.2,62.3 41.3,61.1C41.5,58.4 42.2,56.3 43.3,54.7C44.7,52.8 47.2,50.5 50.8,48C52.7,46.8 54.1,45.4 55.2,43.7C56.3,42 56.8,40 56.8,37.7C56.8,35.4 56.2,33.5 54.9,32.1C53.6,30.7 51.9,30 49.6,30C47.7,30 46.2,30.6 44.9,31.7C44.1,32.4 43.6,33.3 43.3,34.5C42.9,35.9 41.6,36.8 40.1,36.8L31.1,36.6C30,36.6 29.1,35.6 29.2,34.5C29.5,29.7 31.4,26.1 34.7,23.5C38.5,20.6 43.4,19.1 49.6,19.1C56.2,19.1 61.4,20.8 65.2,24.1C69,27.4 70.9,31.9 70.9,37.6C70.9,41.2 69.8,44.4 67.8,47.3Z" style="fill:rgb(0,150,136);fill-rule:nonzero;"/>
</svg>
